assets/icons/traton/link.svg

<svg xmlns="http://www.w3.org/2000/svg" width="32" height="32" viewBox="0 0 32 32" fill="none">
<path d="M10.7012 15.8271L5.43262 21.0957L11.0762 26.7402L16.3457 21.4707L17.7686 22.8945L11.0762 29.5859L2.58594 21.0957L9.27832 14.4033L10.7012 15.8271ZM22.8945 10.7783L10.7783 22.8945L9.35547 21.4707L21.4707 9.35547L22.8945 10.7783ZM29.5859 11.0762L22.8936 17.7686L21.4707 16.3447L26.7393 11.0762L21.0957 5.43164L15.8262 10.7012L14.4033 9.27734L21.0957 2.58594L29.5859 11.0762Z" fill="#001D21" />
</svg>

<svg xmlns="http://www.w3.org/2000/svg" fill="none" viewBox="0 0 32 32"><path fill="#001d21" d="m10.7 15.8-5.3 5.3 5.7 5.6 5.2-5.2 1.5 1.4-6.7 6.7L2.6 21l6.7-6.7zm12.2-5-12.1 12-1.4-1.3 12-12.1zm6.7.3-6.7 6.7-1.4-1.5 5.2-5.2-5.6-5.7-5.3 5.3-1.4-1.4 6.7-6.7z"/></svg>
